Numix-Light-GalliumOS/22/status/skype-status-connecting-0.svg

<?xml version="1.0" encoding="UTF-8" standalone="no"?>
<!-- Created with Inkscape (http://www.inkscape.org/) -->

<svg
   xmlns:dc="http://purl.org/dc/elements/1.1/"
   xmlns:cc="http://creativecommons.org/ns#"
   xmlns:rdf="http://www.w3.org/1999/02/22-rdf-syntax-ns#"
   xmlns:svg="http://www.w3.org/2000/svg"
   xmlns="http://www.w3.org/2000/svg"
   xmlns:sodipodi="http://sodipodi.sourceforge.net/DTD/sodipodi-0.dtd"
   xmlns:inkscape="http://www.inkscape.org/namespaces/inkscape"
   version="1.1"
   width="22"
   height="22"
   id="svg2"
   xml:space="preserve"
   inkscape:version="0.91 r"
   sodipodi:docname="skype-status-connecting-0.svg"><metadata
     id="metadata37"><rdf:RDF><cc:Work
         rdf:about=""><dc:format>image/svg+xml</dc:format><dc:type
           rdf:resource="http://purl.org/dc/dcmitype/StillImage" /><dc:title></dc:title></cc:Work></rdf:RDF></metadata><sodipodi:namedview
     pagecolor="#ffffff"
     bordercolor="#666666"
     borderopacity="1"
     objecttolerance="10"
     gridtolerance="10"
     guidetolerance="10"
     inkscape:pageopacity="0"
     inkscape:pageshadow="2"
     inkscape:window-width="1920"
     inkscape:window-height="1056"
     id="namedview35"
     showgrid="true"
     inkscape:zoom="22.627417"
     inkscape:cx="2.0206203"
     inkscape:cy="5.9266977"
     inkscape:window-x="0"
     inkscape:window-y="24"
     inkscape:window-maximized="1"
     inkscape:current-layer="svg2"><inkscape:grid
       type="xygrid"
       id="grid4146" /></sodipodi:namedview><defs
     id="defs6"><clipPath
       id="clipPath-408241621"><g
         id="g3616"
         transform="translate(0,-1004.3622)"><path
           id="path3618"
           transform="matrix(15.333333,0,0,11.5,414.99999,878.8622)"
           d="m -24,13 c 0,1.105 -0.672,2 -1.5,2 -0.828,0 -1.5,-0.895 -1.5,-2 0,-1.105 0.672,-2 1.5,-2 0.828,0 1.5,0.895 1.5,2 z"
           inkscape:connector-curvature="0"
           style="fill:#1890d0" /></g></clipPath><clipPath
       id="clipPath-401820784"><g
         id="g3611"
         transform="translate(0,-1004.3622)"><path
           id="path3613"
           transform="matrix(15.333333,0,0,11.5,414.99999,878.8622)"
           d="m -24,13 c 0,1.105 -0.672,2 -1.5,2 -0.828,0 -1.5,-0.895 -1.5,-2 0,-1.105 0.672,-2 1.5,-2 0.828,0 1.5,0.895 1.5,2 z"
           inkscape:connector-curvature="0"
           style="fill:#1890d0" /></g></clipPath><linearGradient
       gradientTransform="matrix(0,-1,1,0,-1.5e-6,47.999998)"
       gradientUnits="userSpaceOnUse"
       x2="47"
       x1="1"
       id="linearGradient3764"><stop
         id="stop3606"
         stop-opacity="1"
         stop-color="#003c80" /><stop
         id="stop3608"
         stop-opacity="1"
         stop-color="#004794"
         offset="1" /></linearGradient></defs><path
     style="opacity:1;fill:#353535;fill-opacity:1;fill-rule:nonzero;stroke:none"
     d="M 7.4257812 2.875 C 4.9816293 2.875 3 4.8592532 3 7.3066406 C 3 8.1247745 3.221404 8.8910394 3.6074219 9.5488281 C 3.5062069 10.045287 3.453125 10.559486 3.453125 11.085938 C 3.453125 15.306513 6.8712774 18.726563 11.085938 18.726562 C 11.563299 18.726562 12.029433 18.683572 12.482422 18.599609 C 13.105441 18.934943 13.81738 19.125 14.574219 19.125 C 17.018412 19.125 19 17.140992 19 14.693359 C 19 13.986224 18.833286 13.31771 18.539062 12.724609 C 18.654449 12.196236 18.716797 11.648923 18.716797 11.085938 C 18.716797 6.8654782 15.300593 3.4433594 11.085938 3.4433594 C 10.640973 3.4433594 10.203409 3.4814684 9.7792969 3.5546875 C 9.0972527 3.1244749 8.2913725 2.875 7.4257812 2.875 z M 11.144531 6.9980469 C 12.453196 7.0465129 13.64432 7.7352303 14.347656 8.8164062 L 15.736328 8.3535156 L 14.164062 11.5 L 11.019531 9.9257812 L 12.296875 9.5 C 11.958613 9.205948 11.535776 9.0152869 11.070312 8.9980469 C 10.327871 8.9705509 9.6351479 9.3526788 9.2636719 9.9960938 L 7.53125 8.9960938 C 8.271346 7.7142096 9.6653532 6.9432659 11.144531 6.9980469 z M 7.8320312 10.496094 L 10.976562 12.070312 L 9.6992188 12.496094 C 10.037481 12.790146 10.460319 12.980807 10.925781 12.998047 C 11.668224 13.025543 12.360946 12.643415 12.732422 12 L 14.464844 13 C 13.724748 14.281884 12.330741 15.052828 10.851562 14.998047 C 9.5428975 14.949581 8.351774 14.260863 7.6484375 13.179688 L 6.2597656 13.642578 L 7.8320312 10.496094 z "
     id="path22" /><g
     id="g48"
     transform="matrix(1.25,0,0,-1.25,-129.20625,298.11625)" /><g
     id="g3650"
     clip-path="url(#clipPath-408241621)"
     transform="matrix(0.42297932,0,0,0.42297932,-11.083711,3.1945516)"><!-- color: #004794 --><g
       id="g3652" /></g></svg>

<svg xmlns="http://www.w3.org/2000/svg" viewBox="0 0 22 22">
 <path d="m 7.426 2.875 c -2.444 0 -4.426 1.984 -4.426 4.432 c 0 0.818 0.221 1.584 0.607 2.242 c -0.101 0.496 -0.154 1.01 -0.154 1.537 c 0 4.221 3.418 7.641 7.633 7.641 c 0.477 0 0.943 -0.043 1.396 -0.127 c 0.623 0.335 1.335 0.525 2.092 0.525 c 2.444 0 4.426 -1.984 4.426 -4.432 c 0 -0.707 -0.167 -1.376 -0.461 -1.969 c 0.115 -0.528 0.178 -1.076 0.178 -1.639 c 0 -4.22 -3.416 -7.643 -7.631 -7.643 c -0.445 0 -0.883 0.038 -1.307 0.111 c -0.682 -0.43 -1.488 -0.68 -2.354 -0.68 z m 3.719 4.123 c 1.309 0.048 2.5 0.737 3.203 1.818 l 1.389 -0.463 l -1.572 3.146 l -3.145 -1.574 l 1.277 -0.426 c -0.338 -0.294 -0.761 -0.485 -1.227 -0.502 c -0.742 -0.027 -1.435 0.355 -1.807 0.998 l -1.732 -1 c 0.74 -1.282 2.134 -2.053 3.613 -1.998 z m -3.312 3.498 l 3.145 1.574 l -1.277 0.426 c 0.338 0.294 0.761 0.485 1.227 0.502 c 0.742 0.027 1.435 -0.355 1.807 -0.998 l 1.732 1 c -0.74 1.282 -2.134 2.053 -3.613 1.998 c -1.309 -0.048 -2.5 -0.737 -3.203 -1.818 l -1.389 0.463 l 1.572 -3.146 z" style="fill:#353535;opacity:1;fill-opacity:1;stroke:none;fill-rule:nonzero"/>
 <g transform="matrix(0.42297932,0,0,0.42297932,-11.083711,3.1945516)">
  <!-- color: #004794 -->
 </g>
</svg>
